build/flags/SanMarino.svg

<svg xmlns="http://www.w3.org/2000/svg" fill="none" viewBox="0 0 28 28" focusable="false"><defs><filter id="San_Marino_svg__a"><feColorMatrix values="0 0 0 0 1 0 0 0 0 1 0 0 0 0 1 0 0 0 1 0"/></filter></defs><mask id="San_Marino_svg__b" width="28" height="20" x="0" y="4" maskUnits="userSpaceOnUse"><g filter="url(#San_Marino_svg__a)"><rect width="28" height="20" y="4" fill="#FFF" rx="3"/><rect width="27.5" height="19.5" x=".25" y="4.25" stroke="#F5F5F5" stroke-width=".5" rx="2.75"/></g></mask><path fill="none" d="M0 0H28V28H0z"/><rect width="28" height="20" y="4" fill="#FFF" rx="3"/><rect width="27.5" height="19.5" x=".25" y="4.25" stroke="#D6D8DD" stroke-width=".5" rx="2.75"/><g mask="url(#San_Marino_svg__b)"><path fill="#7CCCF5" fill-rule="evenodd" d="M0 24L28 24L28 13.3334L0 13.3334L0 24Z"/><path d="M28 24L28 13.3334L0 13.3334L0 24L28 24Z"/><path fill="none" d="M12.6636 15.6415C11.8682 15.18 11.3333 14.3192 11.3333 13.3334L12.6636 15.6415ZM16.6667 13.3334C16.6667 14.2779 16.1756 15.1077 15.4349 15.5815L16.6667 13.3334Z"/><path stroke="#445F42" stroke-linecap="round" stroke-width="1.333" d="M12.6636 15.6415C11.8682 15.18 11.3333 14.3192 11.3333 13.3334L12.6636 15.6415ZM16.6667 13.3334C16.6667 14.2779 16.1756 15.1077 15.4349 15.5815L16.6667 13.3334Z"/><path fill="#D89F3D" fill-rule="evenodd" d="M14 14.6666C14.7364 14.6666 15.3333 13.7712 15.3333 12.6666C15.3333 11.5621 14.7364 10.6666 14 10.6666C13.2636 10.6666 12.6667 11.5621 12.6667 12.6666C12.6667 13.7712 13.2636 14.6666 14 14.6666Z"/><path d="M15.3333 12.6666C15.3333 11.5621 14.7364 10.6666 14 10.6666C13.2636 10.6666 12.6667 11.5621 12.6667 12.6666C12.6667 13.7712 13.2636 14.6666 14 14.6666C14.7364 14.6666 15.3333 13.7712 15.3333 12.6666Z"/></g></svg>

<svg xmlns="http://www.w3.org/2000/svg" fill="none" viewBox="0 0 28 28" focusable="false"><path fill="none" d="M0 0h28v28H0z"/><rect width="28" height="20" y="4" fill="#FFF" rx="3"/><rect width="27.5" height="19.5" x=".25" y="4.25" stroke="#D6D8DD" stroke-width=".5" rx="3"/><mask id="San_Marino_svg__a" width="28" height="20" x="0" y="4" mask-type="alpha" maskUnits="userSpaceOnUse"><rect width="28" height="20" y="4" fill="#FFF" rx="3"/><rect width="27.5" height="19.5" x=".25" y="4.25" stroke="#F5F5F5" stroke-width=".5" rx="3"/></mask><g mask="url(#San_Marino_svg__a)"><path fill="#7CCCF5" fill-rule="evenodd" d="M0 24h28V13.33H0z"/><path d="M28 24V13.33H0V24z"/></g><g mask="url(#San_Marino_svg__a)"><mask id="San_Marino_svg__b" fill="#fff"><path fill-rule="evenodd" d="M12.664 15.642a2.67 2.67 0 0 1-1.33-2.309zm4.003-2.309c0 .945-.491 1.775-1.232 2.249z" clip-rule="evenodd"/></mask><path fill="none" d="M12.664 15.642a2.67 2.67 0 0 1-1.33-2.309zm4.003-2.309c0 .945-.491 1.775-1.232 2.249z" clip-rule="evenodd" mask="url(#San_Marino_svg__b)"/><path fill="#445F42" d="M12.329 16.218q-.759-.44-1.203-1.196-.46-.78-.46-1.689v-2.491l2.575 4.467zm.67-1.153-.335.577-.578.332-1.33-2.308.577-.333H12q0 .546.275 1.013.267.454.723.719m4.334-1.732q0 .87-.423 1.627-.41.731-1.116 1.183l-.944-.882 1.232-2.248zm-1.333 0h.667l.584.32-1.232 2.249-.584-.32-.36-.562q.426-.272.672-.712.253-.452.253-.975"/></g><g mask="url(#San_Marino_svg__a)"><path fill="#D89F3D" fill-rule="evenodd" d="M14 14.66c.73 0 1.33-.89 1.33-2 0-1.1-.6-2-1.33-2-.74 0-1.34.9-1.34 2 0 1.11.6 2 1.34 2"/><path d="M15.33 12.66c0-1.1-.6-2-1.33-2-.74 0-1.34.9-1.34 2 0 1.11.6 2 1.34 2 .73 0 1.33-.89 1.33-2"/></g></svg>
